X:1
T:What Is He Worth to Your Soul?
T:W. B. Walbert & Adger McDavid Pace
T:What Is He Worth to Your Soul?
T:Public Domain
T:Public Domain
C:W. B. Walbert & Adger McDavid Pace
Z:Public Domain
%%score ( 1 2 ) ( 3 4 )
L:1/8
M:3/4
K:G
V:1 treble 
V:2 treble 
V:3 bass 
V:4 bass 
V:1
 [GB]3 [G^A] [GB]2 | [Gd]2 [Ge]2 [Gd]2 | [GB]2 [EG]2 [FA]2 | G6 | [GB]3 [G^A] [GB]2 | %5
w: 1.~Je- sus the|Lord laid His|glo- ry a-|side,|ners to save|
w: 2.~All that was|His for the|sin- ner He|gave,|ed the path|
w: 3.~All that He|saves He will|keep till the|end,|der His bless-|
w: 4.~All who will|trust Him in|sun- shine and|gloam,|when they reach|
 G2 [FA]2 [GB]2 | [FA]6- | [FA]4 z2 | [GB]3 [G^A] [GB]2 | [Gd]2 [Ge]2 [Gd]2 | [GB]2 G2 [FA]2 | %11
w: and make whole,|ly||He died our|trans- gres- sions|to hide, What|
w: to the goal;|would||de- prave, but|the Sav- ior|would save, What|
w: èd con- trol;|may||de- pend on|this won- der-|ful friend, What|
w: the bright goal,|ing||to roam, be|for- ev- er|at home, What|
 [EG]6 | [EG]2 [EG]2 [Gc]2 | [GB]3 G [FA]2 | [DG]6- | [DG]4 z2 ||"^Refrain" [GB]2 [G^A]2 [GB]2 | %17
w: He|worth to your|soul? * *||||
w: He|worth to your|soul? What is|worth,||what is He|
w: He|worth to your|soul? * *||||
w: He|worth to your|soul? * *||||
 G4 F2 | [Gd]4 z2 | [Ge]2 [Gd]2 [GB]2 | D4 E2 | [DG]4 z2 | [GB]3 [G^A] [GB]2 | G2 [FA]2 [GB]2 | %24
w: |||||||
w: worth, *|What|is He worth|to *|your|soul? He died|on the tree,|
w: |||||||
w: |||||||
 F4 G2 | [FA]4 [DG]2 | [GB]2 [G^A]2 [GB]2 | G4 F2 | [Gd]4 [Gd]2 | [Ge]2 [Gd]2 [DB]2 | E4 =F2 | %31
w: |||||||
w: you *|and for|me, What is|He *|worth to|your soul? *||
w: |||||||
w: |||||||
 [EG]4 z2 | [EG]2 [EG]2 [Gc]2 | [GB]3 G [FA]2 | D4 E2 | [DG]6 |] %36
w: |||||
w: |||||
w: |||||
w: |||||
V:2
 x6 | x6 | x6 | G6 | x6 | G2 x4 | x6 | x6 | x6 | x6 | x2 G2 x2 | x6 | x6 | x3 G x2 | x6 | x6 || %16
w: |||Sin-||Free-|||||is||||||
w: |||Point-||Sin|||||is|||He|||
w: |||Un-||Men|||||is||||||
w: |||Shall,||Ceas-|||||is||||||
 x6 | d6- | x6 | x6 | G6- | x6 | x6 | G2 x4 | A6- | x6 | x6 | d6- | x6 | x6 | G6- | x6 | x6 | %33
w: |||||||||||||||||
w: |||||||for||||||||||
w: |||||||||||||||||
w: |||||||||||||||||
 x3 G x2 | G6- | x6 |] %36
w: |||
w: |||
w: |||
w: |||
V:3
 [G,D]3 [G,^C] [G,D]2 | [G,B,]2 [G,C]2 [G,B,]2 | [D,D]2 [E,B,]2 [D,C]2 | [G,B,]6 | %4
w: ~ ~ ~|~ ~ ~|~ ~ ~|~|
 [G,D]3 [G,^C] [G,D]2 | [B,D]2 [A,D]2 [G,D]2 | [D,D]6- | [D,D]4 z2 | [G,D]3 [G,^C] [G,D]2 | %9
w: ~ ~ ~|~ ~ ~|~||~ ~ ~|
 [G,B,]2 [G,C]2 [G,B,]2 | [D,D]2 [D,B,]2 [^D,C]2 | [E,B,]6 | [C,C]2 [C,D]2 [C,E]2 | %13
w: ~ ~ ~|~ ~ ~|~|~ ~ ~|
 [D,D]3 [D,B,] [D,C]2 | [G,,G,B,]6- | [G,,G,B,]4 z2 || [G,D]2 [G,^C]2 [G,D]2 | [G,B,]4 [D,A,]2 | %18
w: ~ ~ ~|~||~ ~ ~|~ to|
 [G,B,]4 z2 | [G,C]2 [G,B,]2 [G,D]2 | [G,B,]4 [C,C]2 | [G,,B,]4 z2 | [G,D]3 [G,^C] [G,D]2 | %23
w: you,|~ ~ ~|~ to|you,|~ ~ ~|
 [B,D]2 [A,D]2 [G,D]2 | [D,D]4 [E,^C]2 | [D,C]4 [G,B,]2 | [G,D]2 [G,^C]2 [G,D]2 | [G,B,]4 [D,A,]2 | %28
w: ~ ~ ~|~ ~|~ ~|~ ~ ~|cru- el|
 [G,B,]4 [G,B,]2 | [G,C]2 [G,B,]2 [=F,D]2 | [E,B,]4 [D,B,]2 | [C,C]4 z2 | [C,C]2 [C,D]2 [C,E]2 | %33
w: tree, ~|~ ~ ~|~ for|me,||
 [D,D]3 [D,B,] [D,C]2 | B,4 ^A,2 | [G,,G,B,]6 |] %36
w: |||
V:4
 x6 | x6 | x6 | x6 | x6 | x6 | x6 | x6 | x6 | x6 | x6 | x6 | x6 | x6 | x6 | x6 || x6 | x6 | x6 | %19
 x6 | x6 | x6 | x6 | x6 | x6 | x6 | x6 | x6 | x6 | x6 | x6 | x6 | x6 | x6 | [G,,G,]6- | x6 |] %36

